X:474
L:1/8
M:2/2
K:Bb
 (dc) | B>Fd>c B>Fd>c | B>Fe>d c2 (fe) | d>fB>d c>eA>c | B>ba>g f>ed>c | B>Fd>c B>Fd>c | 
 B>Fe>d c2 (fe) | d>f(Bd) c>eA>c | B2 d2 B2 :: (AB) | c>f=e>g f2 (AB) | c>f=e>f f2 (AB) | 
 c>=eg>b a>gf>e | f>=ef>g f2 (AB) | c>f=e>g f2 (AB) | c>f=e>g f2 (AB) | c>=eg>b a>gf>=e |1 
 f2 a2 f2 :|2{g} f>=ef>g f>_ed>c ||

